icons/star-line.svg

<svg viewBox="0 0 24 24" fill="currentColor" xmlns="http://www.w3.org/2000/svg">
    <path d="M12.0006 18.26L4.94715 22.2082L6.52248 14.2799L0.587891 8.7918L8.61493 7.84006L12.0006 0.5L15.3862 7.84006L23.4132 8.7918L17.4787 14.2799L19.054 22.2082L12.0006 18.26ZM12.0006 15.968L16.2473 18.3451L15.2988 13.5717L18.8719 10.2674L14.039 9.69434L12.0006 5.27502L9.96214 9.69434L5.12921 10.2674L8.70231 13.5717L7.75383 18.3451L12.0006 15.968Z"/>
</svg>

<svg xmlns="http://www.w3.org/2000/svg" viewBox="0 0 24 24">
    <g>
        <path fill="none" d="M0 0h24v24H0z"/>
        <path d="M12 18.26l-7.053 3.948 1.575-7.928L.587 8.792l8.027-.952L12 .5l3.386 7.34 8.027.952-5.935 5.488 1.575 7.928L12 18.26zm0-2.292l4.247 2.377-.949-4.773 3.573-3.305-4.833-.573L12 5.275l-2.038 4.42-4.833.572 3.573 3.305-.949 4.773L12 15.968z"/>
    </g>
</svg>
